build/assets/images/trust.svg

<svg width="105" height="95" viewBox="0 0 105 95" fill="none" xmlns="http://www.w3.org/2000/svg">
<path d="M70.8055 93.0096L54.2667 74.2791C53.6052 73.5124 53.6052 72.3075 54.1565 71.5407C54.818 70.774 55.8104 70.6644 56.4719 71.4312L70.8055 87.6424C71.4671 88.2996 72.4594 88.2996 73.0107 87.6424L101.457 54.5628C102.119 53.796 103.111 53.796 103.773 54.6723C104.434 55.4391 104.324 56.7535 103.773 57.4107L73.0107 93.0096C72.4594 93.7764 71.4671 93.7764 70.8055 93.0096Z" fill="url(#paint0_linear)" stroke="url(#paint1_linear)" stroke-miterlimit="10"/>
<path d="M80.1776 59.1632C73.6724 54.2341 66.285 50.948 58.7875 49.4145C68.1594 45.6903 74.7749 36.7085 74.7749 26.0835C74.7749 12.2821 63.4183 1 49.5257 1C35.6332 1 24.3868 12.3917 24.3868 26.1931C24.3868 36.4894 30.6715 45.3617 39.7127 49.1955C34.4203 50.1813 29.2382 52.0434 24.497 54.7817C5.97361 65.5162 1.89405 85.342 1.01198 91.6951C0.901721 92.6809 1.56327 93.4477 2.5556 93.5572C3.43767 93.6667 4.20948 93.0095 4.31974 92.1332C5.09155 86.3279 8.95059 67.7069 26.1509 57.6297C42.0282 48.4287 62.6465 50.1813 78.0827 61.792C78.4135 62.0111 78.7443 62.1206 79.075 62.1206C79.5161 62.1206 80.0674 61.9015 80.3981 61.4634C81.0597 60.8062 80.8392 59.7108 80.1776 59.1632ZM27.6945 26.1931C27.6945 14.2538 37.5076 4.50512 49.5257 4.50512C61.5439 4.50512 71.3569 14.2538 71.3569 26.1931C71.3569 38.1324 61.5439 47.881 49.5257 47.881C37.5076 47.881 27.6945 38.1324 27.6945 26.1931Z" fill="url(#paint2_linear)" stroke="url(#paint3_linear)" stroke-miterlimit="10"/>
<defs>
<linearGradient id="paint0_linear" x1="78.9922" y1="54.0007" x2="78.9922" y2="93.5847" gradientUnits="userSpaceOnUse">
<stop stop-color="#F16122"/>
<stop offset="1" stop-color="#FEBD33"/>
</linearGradient>
<linearGradient id="paint1_linear" x1="78.9922" y1="54.0007" x2="78.9922" y2="93.5847" gradientUnits="userSpaceOnUse">
<stop stop-color="#F16122"/>
<stop offset="1" stop-color="#FEBD33"/>
</linearGradient>
<linearGradient id="paint2_linear" x1="40.8988" y1="1" x2="40.8988" y2="93.5691" gradientUnits="userSpaceOnUse">
<stop stop-color="#F16122"/>
<stop offset="1" stop-color="#FEBD33"/>
</linearGradient>
<linearGradient id="paint3_linear" x1="40.8988" y1="1" x2="40.8988" y2="93.5691" gradientUnits="userSpaceOnUse">
<stop stop-color="#F16122"/>
<stop offset="1" stop-color="#FEBD33"/>
</linearGradient>
</defs>
</svg>

<svg width="105" height="95" fill="none" xmlns="http://www.w3.org/2000/svg"><path d="M70.805 93.01L54.267 74.28c-.662-.768-.662-1.972-.11-2.74.661-.766 1.653-.876 2.315-.109l14.333 16.211c.662.658 1.654.658 2.206 0l28.446-33.08c.662-.766 1.654-.766 2.316.11.661.767.551 2.082 0 2.739L73.011 93.01c-.552.766-1.544.766-2.206 0z" fill="url(#paint0_linear)" stroke="url(#paint1_linear)" stroke-miterlimit="10"/><path d="M80.178 59.163c-6.506-4.929-13.893-8.215-21.39-9.748 9.371-3.725 15.987-12.706 15.987-23.331C74.775 12.282 63.418 1 49.525 1 35.634 1 24.388 12.392 24.388 26.193c0 10.296 6.285 19.169 15.326 23.003-5.293.985-10.475 2.847-15.216 5.586C5.974 65.516 1.894 85.342 1.012 91.695c-.11.986.551 1.753 1.544 1.862.882.11 1.653-.547 1.764-1.424.772-5.805 4.63-24.426 21.83-34.503 15.878-9.201 36.497-7.449 51.933 4.162.33.22.661.329.992.329.441 0 .992-.22 1.323-.658.662-.657.441-1.752-.22-2.3zm-52.483-32.97c0-11.94 9.813-21.688 21.83-21.688 12.019 0 21.832 9.749 21.832 21.688 0 11.94-9.813 21.688-21.831 21.688-12.018 0-21.832-9.749-21.832-21.688z" fill="url(#paint2_linear)" stroke="url(#paint3_linear)" stroke-miterlimit="10"/><defs><linearGradient id="paint0_linear" x1="78.992" y1="54.001" x2="78.992" y2="93.585" gradientUnits="userSpaceOnUse"><stop stop-color="#F16122"/><stop offset="1" stop-color="#FEBD33"/></linearGradient><linearGradient id="paint1_linear" x1="78.992" y1="54.001" x2="78.992" y2="93.585" gradientUnits="userSpaceOnUse"><stop stop-color="#F16122"/><stop offset="1" stop-color="#FEBD33"/></linearGradient><linearGradient id="paint2_linear" x1="40.899" y1="1" x2="40.899" y2="93.569" gradientUnits="userSpaceOnUse"><stop stop-color="#F16122"/><stop offset="1" stop-color="#FEBD33"/></linearGradient><linearGradient id="paint3_linear" x1="40.899" y1="1" x2="40.899" y2="93.569" gradientUnits="userSpaceOnUse"><stop stop-color="#F16122"/><stop offset="1" stop-color="#FEBD33"/></linearGradient></defs></svg>
